images/uk.svg

<svg width="120" height="143" viewBox="0 0 120 143" fill="none" xmlns="http://www.w3.org/2000/svg">
<path fill-rule="evenodd" clip-rule="evenodd" d="M16.703 17.3967C16.5858 17.3323 16.4672 17.2671 16.3372 17.1811H16.3617C16.3698 17.1678 16.3796 17.1537 16.39 17.1386L16.39 17.1386C16.4113 17.1079 16.4351 17.0735 16.4515 17.0354C16.4842 17.0233 16.5188 17.0132 16.5535 17.003C16.5882 16.9929 16.6229 16.9828 16.6555 16.9707C16.8474 17.1066 16.9141 17.2498 16.9841 17.4003C17.0184 17.4739 17.0535 17.5492 17.1044 17.6263C24.3436 22.135 28.3916 19.7147 31.2236 13.4252C31.6154 12.5186 31.9908 11.5392 32.3581 10.495C35.7029 0.750962 43.5723 0.632356 51.1832 0.517647C53.6189 0.480937 56.0282 0.444625 58.2542 0.0933399C63.6244 -0.740408 61.9105 4.22161 59.5845 6.60952C58.8167 7.40788 57.9144 8.08003 56.9799 8.77615C54.6265 10.5292 52.069 12.4342 50.9416 16.8897C53.1119 16.8897 55.1896 16.9032 57.2036 16.9162L57.204 16.9162C61.6273 16.9449 65.7435 16.9716 69.8597 16.8492C77.5559 16.6226 78.8618 19.3991 74.6178 25.5753C73.6882 26.9367 72.9363 28.4247 72.1861 29.9095C71.2501 31.7618 70.3166 33.6092 69.0436 35.1998C64.5956 40.7203 64.6936 44.4924 71.9899 47.0665C73.8262 47.7141 76.193 49.333 76.6582 50.9762C78.8729 58.7602 84.1752 64.6094 89.4622 70.4417C95.3197 76.9033 101.158 83.3442 102.758 92.3722C102.833 92.7876 102.884 93.1722 102.93 93.5244L102.93 93.5245L102.93 93.5246C103.185 95.4516 103.312 96.4112 106.472 96.1443C111.858 95.6425 118.232 95.5777 119.734 102.393C121.179 108.893 116.502 113.03 111.499 116.462C110.818 116.924 110.298 117.601 109.718 118.358L109.718 118.358C109.464 118.689 109.199 119.035 108.904 119.384C109.365 121.381 111.11 121.434 112.744 121.484C114.375 121.533 115.894 121.579 115.915 123.553C115.947 126.839 112.397 128.369 109.94 129.122C97.4126 132.983 84.2156 134.294 71.3696 134.035C64.5124 133.885 58.5101 136.059 52.5403 138.221C48.2076 139.79 43.8919 141.353 39.279 142.017C38.6034 142.117 37.9402 142.266 37.2639 142.419C34.8192 142.971 32.2049 143.561 28.2284 141.976C32.9438 140.278 36.0589 136.834 39.1969 133.365C43.8798 128.189 48.6136 122.956 58.7929 123.383C57.0062 122.646 55.5721 122.046 54.3681 121.542L54.3678 121.542L54.3672 121.542C52.0241 120.562 50.5522 119.946 49.0482 119.4C42.2007 116.948 41.2867 112.18 46.3957 106.659C49.2767 103.559 51.2681 100.232 44.7389 98.8884C41.1498 98.1548 42.0062 96.6317 42.9559 94.9428C43.6409 93.7245 44.3745 92.42 43.5229 91.2633C42.4293 89.7738 46.0203 89.3529 48.0933 89.612C54.2306 90.3971 62.9062 91.4494 60.5231 82.5534C60.3294 81.8342 60.1459 81.0238 59.9502 80.1599C58.5957 74.179 56.6591 65.6283 46.7466 66.9227C36.0062 68.3231 32.6356 65.6842 39.3524 56.0192C37.9862 55.4129 36.096 56.1133 34.284 56.7846C30.8462 58.0584 27.6904 59.2277 28.9303 51.1705C29.0037 50.6606 27.9917 49.4383 27.7877 49.4949C27.0069 49.7403 26.209 50.5078 25.4158 51.2708C23.697 52.9241 22.0005 54.556 20.5485 50.8063C19.5125 48.1331 21.2658 47.4263 23.3238 46.5966C25.4161 45.7531 27.8235 44.7826 27.9346 41.4893C27.7726 40.9679 26.5644 40.9562 25.2637 40.9437C23.0914 40.9227 20.6614 40.8993 22.4175 38.4943C28.263 30.4949 23.7908 27.1332 18.787 23.3719L18.787 23.3719L18.7869 23.3718C18.2717 22.9845 17.7508 22.593 17.235 22.1917C16.5586 21.6693 16.8049 20.8818 17.0683 20.0396C17.1926 19.642 17.3208 19.2322 17.3574 18.8324C17.3574 18.8203 17.3533 18.8041 17.3493 18.7879C17.3452 18.7717 17.3411 18.7555 17.3411 18.7434C17.3656 18.3629 17.3248 17.9744 17.0881 17.6263C16.953 17.5342 16.8287 17.4659 16.703 17.3967ZM3.35813 76.3126C1.70953 76.0454 -0.167597 74.3294 0.0119536 71.8605C0.371055 67.3275 14.3026 58.0915 20.4889 58.4558C26.1863 58.7668 28.0236 62.6072 29.7506 66.2168C30.4505 67.6797 31.1322 69.1047 32.0455 70.2416C31.7761 75.5841 28.5197 78.6034 25.0185 78.6195C18.1434 78.7044 11.2165 77.5838 4.37181 76.4764L4.37159 76.4764L3.35813 76.3126ZM23.0826 2.56238C15.3701 4.60223 10.9221 8.66574 11.469 16.8818C6.30267 17.3858 7.80128 19.4698 9.18248 21.3905C9.39846 21.6908 9.61157 21.9871 9.79587 22.2728C10.1946 21.3731 10.8886 20.5277 11.6047 19.6555C12.061 19.0996 12.5264 18.5328 12.9299 17.9341C13.383 17.8178 13.8373 17.6991 14.2919 17.5803L14.2921 17.5803C15.0084 17.3931 15.7253 17.2058 16.4393 17.0275C17.1349 15.5063 18.331 14.2201 19.5441 12.9155C22.017 10.2562 24.561 7.52048 23.0826 2.56238ZM9.5212 24.5553C10.7617 24.1263 10.4271 23.2683 9.79053 22.2726C9.47224 22.9688 9.28452 23.6973 9.5212 24.5553Z" fill="#C99B67"/>
</svg>

<svg width="120" height="143" fill="none" xmlns="http://www.w3.org/2000/svg"><path fill-rule="evenodd" clip-rule="evenodd" d="M16.703 17.397a4.958 4.958 0 0 1-.366-.216h.025l.028-.042a.603.603 0 0 0 .061-.104c.033-.012.068-.022.102-.032.035-.01.07-.02.102-.032.192.136.26.279.33.43.033.073.069.148.12.225 7.239 4.509 11.287 2.089 14.119-4.2.391-.907.767-1.887 1.134-2.931C35.703.751 43.572.632 51.183.518 53.62.48 56.028.445 58.254.093c5.37-.833 3.657 4.129 1.33 6.517-.767.798-1.67 1.47-2.604 2.166-2.353 1.753-4.911 3.658-6.038 8.114 2.17 0 4.248.013 6.262.026 4.423.029 8.54.056 12.656-.067 7.696-.226 9.002 2.55 4.758 8.726-.93 1.362-1.682 2.85-2.432 4.335-.936 1.852-1.87 3.7-3.142 5.29-4.448 5.52-4.35 9.292 2.946 11.866 1.836.648 4.203 2.267 4.668 3.91 2.215 7.784 7.517 13.633 12.804 19.466 5.858 6.461 11.696 12.902 13.296 21.93.075.416.126.8.172 1.152.255 1.928.382 2.887 3.542 2.62 5.386-.502 11.76-.566 13.262 6.249 1.445 6.5-3.232 10.637-8.235 14.069-.681.462-1.201 1.139-1.781 1.896-.254.331-.519.677-.814 1.026.461 1.997 2.206 2.05 3.84 2.1 1.631.049 3.15.095 3.171 2.069.032 3.286-3.518 4.816-5.975 5.569-12.527 3.861-25.724 5.172-38.57 4.913-6.858-.15-12.86 2.024-18.83 4.186-4.332 1.569-8.648 3.132-13.261 3.796-.676.1-1.339.249-2.015.402-2.445.552-5.06 1.142-9.036-.443 4.716-1.698 7.83-5.142 10.969-8.611 4.683-5.176 9.417-10.409 19.596-9.982a869.904 869.904 0 0 1-4.425-1.841c-2.344-.98-3.816-1.596-5.32-2.142-6.847-2.452-7.761-7.22-2.652-12.741 2.88-3.1 4.872-6.427-1.657-7.77-3.59-.734-2.733-2.257-1.783-3.946.685-1.218 1.418-2.523.567-3.68-1.094-1.49 2.497-1.91 4.57-1.651 6.138.785 14.813 1.837 12.43-7.059-.194-.719-.377-1.53-.573-2.393-1.354-5.981-3.29-14.532-13.203-13.237-10.74 1.4-14.111-1.239-7.395-10.904-1.366-.606-3.256.094-5.068.766-3.438 1.273-6.594 2.443-5.354-5.614.074-.51-.938-1.733-1.142-1.676-.781.245-1.579 1.013-2.372 1.776-1.719 1.653-3.416 3.285-4.867-.465-1.037-2.673.717-3.38 2.775-4.21 2.092-.843 4.5-1.813 4.61-5.107-.161-.521-1.37-.533-2.67-.545-2.173-.021-4.603-.045-2.846-2.45 5.845-8 1.373-11.36-3.631-15.122a120.22 120.22 0 0 1-1.552-1.18c-.676-.523-.43-1.31-.167-2.152.125-.398.253-.808.29-1.208 0-.012-.005-.028-.009-.044a.207.207 0 0 1-.008-.045c.025-.38-.016-.769-.253-1.117-.135-.092-.26-.16-.385-.23ZM3.358 76.313C1.71 76.045-.168 74.329.012 71.86c.36-4.532 14.29-13.768 20.477-13.404 5.697.31 7.535 4.151 9.262 7.76.7 1.464 1.381 2.889 2.294 4.026-.269 5.342-3.525 8.361-7.027 8.377-6.875.085-13.802-1.035-20.646-2.143l-1.014-.163Zm19.725-73.75c-7.713 2.04-12.16 6.103-11.614 14.319-5.166.504-3.668 2.588-2.287 4.508.216.3.43.597.614.883.399-.9 1.093-1.745 1.809-2.617.456-.556.921-1.123 1.325-1.722.453-.116.907-.235 1.362-.354a199.32 199.32 0 0 1 2.147-.552c.696-1.522 1.892-2.808 3.105-4.112 2.473-2.66 5.017-5.396 3.539-10.354ZM9.52 24.554c1.24-.429.906-1.287.27-2.282-.319.696-.506 1.424-.27 2.282Z" fill="#C99B67"/></svg>
